X: 1
T: Jackson's Return From Dover
M: 6/8
L: 1/8
R: jig
K: Gmaj
FG|:AAA ABc|BAG EFG|AAA ABc|BAG E2 D|
EGG EGG|EGG GED|AAA ABc|BAB GAB|
cBc A2G|1FDD DFG:|2FDD D2e||
|:fdd edd|fdd def|gfg e2d|cAA A2 e|
fdd ede|gfe dcA|AAA ABc|1BAG E2e:|2BAG EFG||
